vendor/shopware/storefront/Resources/app/storefront/dist/assets/icon/default/home.svg

<svg xmlns="http://www.w3.org/2000/svg" width="24" height="24" viewBox="0 0 24 24">
  <path fill="#758CA3" fill-rule="evenodd" d="M13,21 L13,14 C13,12.8954305 13.8954305,12 15,12 L17,12 C18.1045695,12 19,12.8954305 19,14 L19,21 L21.0498756,21 L21.0498756,12.0753834 L12,7.13908764 L3,12.0481786 L3,21 L13,21 Z M23.0498756,13.0000893 L23.0498756,21 C23.0498756,22.1045695 22.1544451,23 21.0498756,23 L3,23 C1.8954305,23 1,22.1045695 1,21 L1,13.0014122 C0.477127894,13.0008496 0,12.5816843 0,12 L0,7 C0,6.63405578 0.199887059,6.2973376 0.521147869,6.12210443 L11.5211479,0.122104427 C11.8196254,-0.0407014757 12.1803746,-0.0407014757 12.4788521,0.122104427 L23.4788521,6.12210443 C23.8001129,6.2973376 24,6.63405578 24,7 L24,12 C24,12.5631322 23.5528217,12.9739467 23.0498756,13.0000893 Z M2,10.3154578 L11.5211479,5.12210443 C11.8196254,4.95929852 12.1803746,4.95929852 12.4788521,5.12210443 L22,10.3154578 L22,7.5936331 L12,2.13908764 L2,7.5936331 L2,10.3154578 Z M15,14 L15,21 L17,21 L17,14 L15,14 Z M7,12 L9,12 C10.1045695,12 11,12.8954305 11,14 L11,16 C11,17.1045695 10.1045695,18 9,18 L7,18 C5.8954305,18 5,17.1045695 5,16 L5,14 C5,12.8954305 5.8954305,12 7,12 Z M7,14 L7,16 L9,16 L9,14 L7,14 Z"/>
</svg>

<svg xmlns="http://www.w3.org/2000/svg" width="24" height="24" viewBox="0 0 24 24"><path fill="#758CA3" fill-rule="evenodd" d="M13 21v-7c0-1.1046.8954-2 2-2h2c1.1046 0 2 .8954 2 2v7h2.0499v-8.9246L12 7.139l-9 4.909V21h10zm10.0499-8v8c0 1.1046-.8955 2-2 2H3c-1.1046 0-2-.8954-2-2v-7.9986C.4771 13.0008 0 12.5817 0 12V7a1 1 0 0 1 .5211-.8779l11-6a1 1 0 0 1 .9578 0l11 6A1 1 0 0 1 24 7v5c0 .5631-.4472.974-.9501 1zM2 10.3156l9.5211-5.1934a1 1 0 0 1 .9578 0L22 10.3155V7.5936L12 2.1391 2 7.5936v2.7219zM15 14v7h2v-7h-2zm-8-2h2c1.1046 0 2 .8954 2 2v2c0 1.1046-.8954 2-2 2H7c-1.1046 0-2-.8954-2-2v-2c0-1.1046.8954-2 2-2zm0 2v2h2v-2H7z"/></svg>
